!!!OTL@@FUR: L'ucefuarfis
!!!OTL@IT: E'ammalato l'arrotino
!!!OTL@EN: The knife-grinder
**kern
*clefG2
*k[]
*C:
*M2/4
*MM120
*>[A,A]
*>A
4g
=1
4.ee
8dd
=2
8.dd
16cc
8.cc
16b
=3
8.b
16a
8.g
16e
=4
2g
=5
8f
8r
4g
=6
4.dd
8cc
=7
8.cc
16b
8.b
16a
=8
8.a
16g
8.a
16b
=9
2cc
=10
8g
8r
4g
=11
4.ee
8dd
=12
8.dd
16cc
8.cc
16b
=13
8.b
16a
8.g
16e
=14
2g
=15
8f
8r
4g
=16
4.dd
8cc
=17
8.cc
16b
8.b
16a
=18
8.a
16g
8.a
16b
=19
[2cc
=20
8cc]
8r
==:|!
*-
!!!ARE: Friuli
!!!ENC: Kelly Leistikow
!!!END: 2002/03/07
!!!ref: @{OTL@@FUR}/@{OTL@EN}
